Newaita/actions/22/kdenlive-hide-video.svg

<svg height="22" viewBox="0 0 22 22" width="22" xmlns="http://www.w3.org/2000/svg"><g fill="#424242"><path d="m14.097656 15.636719h.910156c.25 0 .457032.203125.457032.453125v.910156c0 .25-.207032.453125-.457032.453125h-.910156c-.25 0-.453125-.203125-.453125-.453125v-.910156c0-.25.203125-.453125.453125-.453125zm0 0"/><path d="m14.097656 11.996094h.910156c.25 0 .457032.203125.457032.457031v.90625c0 .253906-.207032.457031-.457032.457031h-.910156c-.25 0-.453125-.203125-.453125-.457031v-.90625c0-.253906.203125-.457031.453125-.457031zm0 0"/><path d="m14.097656 8.359375h.910156c.25 0 .457032.203125.457032.453125v.910156c0 .25-.207032.453125-.457032.453125h-.910156c-.25 0-.453125-.203125-.453125-.453125v-.910156c0-.25.203125-.453125.453125-.453125zm0 0"/><path d="m14.097656 4.71875h.910156c.25 0 .457032.203125.457032.457031v.910157c0 .25-.207032.453124-.457032.453124h-.910156c-.25 0-.453125-.203124-.453125-.453124v-.910157c0-.253906.203125-.457031.453125-.457031zm0 0"/><path d="m5.457031 1.992188c-1.007812 0-1.820312.808593-1.820312 1.816406v14.554687c0 1.007813.8125 1.820313 1.820312 1.820313h10.914063c1.007812 0 1.820312-.8125 1.820312-1.820313v-14.554687c0-1.007813-.8125-1.816406-1.820312-1.816406zm.910157 1.816406h9.097656c.503906 0 .90625.40625.90625.910156v12.734375c0 .503906-.402344.910156-.90625.910156h-9.097656c-.503907 0-.910157-.40625-.910157-.910156v-12.734375c0-.503906.40625-.910156.910157-.910156zm0 0" fill-opacity=".392157"/><path d="m6.820312 15.636719h.910157c.253906 0 .457031.203125.457031.453125v.910156c0 .25-.203125.453125-.457031.453125h-.910157c-.25 0-.453124-.203125-.453124-.453125v-.910156c0-.25.203124-.453125.453124-.453125zm0 0"/><path d="m6.820312 11.996094h.910157c.253906 0 .457031.203125.457031.457031v.90625c0 .253906-.203125.457031-.457031.457031h-.910157c-.25 0-.453124-.203125-.453124-.457031v-.90625c0-.253906.203124-.457031.453124-.457031zm0 0"/><path d="m6.820312 8.359375h.910157c.253906 0 .457031.203125.457031.453125v.910156c0 .25-.203125.453125-.457031.453125h-.910157c-.25 0-.453124-.203125-.453124-.453125v-.910156c0-.25.203124-.453125.453124-.453125zm0 0"/><path d="m6.820312 4.71875h.910157c.253906 0 .457031.203125.457031.457031v.910157c0 .25-.203125.453124-.457031.453124h-.910157c-.25 0-.453124-.203124-.453124-.453124v-.910157c0-.253906.203124-.457031.453124-.457031zm0 0"/></g></svg>

<?xml version="1.0" encoding="UTF-8"?>
<svg xmlns="http://www.w3.org/2000/svg" xmlns:xlink="http://www.w3.org/1999/xlink" width="22px" height="22px" viewBox="0 0 22 22" version="1.1">
<g id="surface1">
<path style=" stroke:none;fill-rule:nonzero;fill:rgb(25.882354%,25.882354%,25.882354%);fill-opacity:1;" d="M 14.097656 15.636719 L 15.007812 15.636719 C 15.257812 15.636719 15.464844 15.839844 15.464844 16.089844 L 15.464844 17 C 15.464844 17.25 15.257812 17.453125 15.007812 17.453125 L 14.097656 17.453125 C 13.847656 17.453125 13.644531 17.25 13.644531 17 L 13.644531 16.089844 C 13.644531 15.839844 13.847656 15.636719 14.097656 15.636719 Z M 14.097656 15.636719 "/>
<path style=" stroke:none;fill-rule:nonzero;fill:rgb(25.882354%,25.882354%,25.882354%);fill-opacity:1;" d="M 14.097656 11.996094 L 15.007812 11.996094 C 15.257812 11.996094 15.464844 12.199219 15.464844 12.453125 L 15.464844 13.359375 C 15.464844 13.613281 15.257812 13.816406 15.007812 13.816406 L 14.097656 13.816406 C 13.847656 13.816406 13.644531 13.613281 13.644531 13.359375 L 13.644531 12.453125 C 13.644531 12.199219 13.847656 11.996094 14.097656 11.996094 Z M 14.097656 11.996094 "/>
<path style=" stroke:none;fill-rule:nonzero;fill:rgb(25.882354%,25.882354%,25.882354%);fill-opacity:1;" d="M 14.097656 8.359375 L 15.007812 8.359375 C 15.257812 8.359375 15.464844 8.5625 15.464844 8.8125 L 15.464844 9.722656 C 15.464844 9.972656 15.257812 10.175781 15.007812 10.175781 L 14.097656 10.175781 C 13.847656 10.175781 13.644531 9.972656 13.644531 9.722656 L 13.644531 8.8125 C 13.644531 8.5625 13.847656 8.359375 14.097656 8.359375 Z M 14.097656 8.359375 "/>
<path style=" stroke:none;fill-rule:nonzero;fill:rgb(25.882354%,25.882354%,25.882354%);fill-opacity:1;" d="M 14.097656 4.71875 L 15.007812 4.71875 C 15.257812 4.71875 15.464844 4.921875 15.464844 5.175781 L 15.464844 6.085938 C 15.464844 6.335938 15.257812 6.539062 15.007812 6.539062 L 14.097656 6.539062 C 13.847656 6.539062 13.644531 6.335938 13.644531 6.085938 L 13.644531 5.175781 C 13.644531 4.921875 13.847656 4.71875 14.097656 4.71875 Z M 14.097656 4.71875 "/>
<path style=" stroke:none;fill-rule:nonzero;fill:rgb(25.882354%,25.882354%,25.882354%);fill-opacity:0.392157;" d="M 5.457031 1.992188 C 4.449219 1.992188 3.636719 2.800781 3.636719 3.808594 L 3.636719 18.363281 C 3.636719 19.371094 4.449219 20.183594 5.457031 20.183594 L 16.371094 20.183594 C 17.378906 20.183594 18.191406 19.371094 18.191406 18.363281 L 18.191406 3.808594 C 18.191406 2.800781 17.378906 1.992188 16.371094 1.992188 Z M 6.367188 3.808594 L 15.464844 3.808594 C 15.96875 3.808594 16.371094 4.214844 16.371094 4.71875 L 16.371094 17.453125 C 16.371094 17.957031 15.96875 18.363281 15.464844 18.363281 L 6.367188 18.363281 C 5.863281 18.363281 5.457031 17.957031 5.457031 17.453125 L 5.457031 4.71875 C 5.457031 4.214844 5.863281 3.808594 6.367188 3.808594 Z M 6.367188 3.808594 "/>
<path style=" stroke:none;fill-rule:nonzero;fill:rgb(25.882354%,25.882354%,25.882354%);fill-opacity:1;" d="M 6.820312 15.636719 L 7.730469 15.636719 C 7.984375 15.636719 8.1875 15.839844 8.1875 16.089844 L 8.1875 17 C 8.1875 17.25 7.984375 17.453125 7.730469 17.453125 L 6.820312 17.453125 C 6.570312 17.453125 6.367188 17.25 6.367188 17 L 6.367188 16.089844 C 6.367188 15.839844 6.570312 15.636719 6.820312 15.636719 Z M 6.820312 15.636719 "/>
<path style=" stroke:none;fill-rule:nonzero;fill:rgb(25.882354%,25.882354%,25.882354%);fill-opacity:1;" d="M 6.820312 11.996094 L 7.730469 11.996094 C 7.984375 11.996094 8.1875 12.199219 8.1875 12.453125 L 8.1875 13.359375 C 8.1875 13.613281 7.984375 13.816406 7.730469 13.816406 L 6.820312 13.816406 C 6.570312 13.816406 6.367188 13.613281 6.367188 13.359375 L 6.367188 12.453125 C 6.367188 12.199219 6.570312 11.996094 6.820312 11.996094 Z M 6.820312 11.996094 "/>
<path style=" stroke:none;fill-rule:nonzero;fill:rgb(25.882354%,25.882354%,25.882354%);fill-opacity:1;" d="M 6.820312 8.359375 L 7.730469 8.359375 C 7.984375 8.359375 8.1875 8.5625 8.1875 8.8125 L 8.1875 9.722656 C 8.1875 9.972656 7.984375 10.175781 7.730469 10.175781 L 6.820312 10.175781 C 6.570312 10.175781 6.367188 9.972656 6.367188 9.722656 L 6.367188 8.8125 C 6.367188 8.5625 6.570312 8.359375 6.820312 8.359375 Z M 6.820312 8.359375 "/>
<path style=" stroke:none;fill-rule:nonzero;fill:rgb(25.882354%,25.882354%,25.882354%);fill-opacity:1;" d="M 6.820312 4.71875 L 7.730469 4.71875 C 7.984375 4.71875 8.1875 4.921875 8.1875 5.175781 L 8.1875 6.085938 C 8.1875 6.335938 7.984375 6.539062 7.730469 6.539062 L 6.820312 6.539062 C 6.570312 6.539062 6.367188 6.335938 6.367188 6.085938 L 6.367188 5.175781 C 6.367188 4.921875 6.570312 4.71875 6.820312 4.71875 Z M 6.820312 4.71875 "/>
</g>
</svg>
